X:1
T:Cantabria, LMD
T:Cantabria, LMD
T:John Marchant Whyte, 1889
T:Public Domain Courtesy of the Cyber Hymnal™
C:John Marchant Whyte, 1889
Z:Public Domain
Z:Courtesy of the Cyber Hymnal™
%%score ( 1 2 ) ( 3 4 )
L:1/8
Q:1/4=135
M:3/2
K:Eb
V:1 treble 
V:2 treble 
V:3 bass 
V:4 bass 
V:1
 [GB]2 [GB]2 [FA]2 | [EG]6 [FA]2 [GB]2 [Ac]2 | [GB]6 E2 [EG]2 [GB]2 | [FB]6 [EG]2 [EG]2 [DF]2 | %4
 [DF]6 [EG]2 [DA]2 [EB]2 | [Ec]6 [Ee]2 [Ed]2 [Ec]2 | [EB]6 [Ge]2 [Ge]2 [EG]2 | %7
 [EB]6 E2 [EG]2 [DF]2 | E6 [EG]2 [DF]2 [FA]2 | [FA]6 [DF]2 [FA]2 [EG]2 | [EG]6 [GB]2 [GB]2 [EG]2 | %11
 [EG]6 E2 [EG]2 [DF]2 x12 | [DF]6 [EG]2 [DA]2 [EB]2 | [Ec]6 [Ee]2 [Fd]2 [Ac]2 | %14
 [GB]6 [Ge]2 [Ge]2 [EG]2 | [GB]6 E2 [EG]2 [DF]2 | E6 |] %17
V:2
 x6 | x12 | x6 E2 x4 | x12 | x12 | x12 | x12 | x6 E2 x4 | E6 x6 | x12 | x12 | x6 E2 x16 | x12 | %13
 x12 | x12 | x6 E2 x4 | E6 |] %17
V:3
 [E,B,]2 [E,B,]2 [E,B,]2 | [E,B,]6 [E,B,]2 [E,B,]2 [E,B,]2 | [E,E]6 [E,G,]2 [E,B,]2 [E,B,]2 | %3
 [D,B,]6 [E,B,]2 [B,,B,]2 [B,,B,]2 | [B,,B,]6 [E,B,]2 [F,B,]2 [G,B,]2 | A,6 [A,C]2 [A,B,]2 A,2 | %6
 [E,G,]6 [E,B,]2 [E,B,]2 [E,B,]2 | [G,B,]6 [E,G,]2 [B,,B,]2 [B,,A,]2 | [E,G,]6 z4 [B,,B,]2 | %9
 [B,,B,]2 [B,,B,]2 [B,,B,]2 z4 [E,B,]2 | [E,B,]2 [E,B,]2 [E,B,]2 [E,E]2 [E,E]2 [E,B,]2 | %11
 [E,B,]2 [E,B,]2 [E,B,]2 z4 [B,,B,]2 [B,,B,]2 [B,,B,]2 [B,,B,]2 [E,B,]2 [F,B,]2 [G,B,]2 | %12
 A,2 A,2 A,2 z4 [A,E]2 | [E,E]2 [E,E]2 [E,E]2 z4 [E,E]2 | %14
 [E,E]2 [E,B,]2 [E,B,]2 [E,G,]2 [B,,B,]2 [B,,A,]2 | [E,G,]6 x6 | x6 |] %17
V:4
 x6 | x12 | x12 | x12 | x12 | A,6 A,2 x4 | x12 | x12 | x12 | x12 | x12 | x24 | A,2 A,2 A,2 x6 | %13
 x12 | x12 | x12 | x6 |] %17

